X:820
T:Asturies, Patria Querida
Z:Métodu de Gaita
M:3/4
L:1/8
Q:1/4=80
K:C
C|:E2 E2 FE/2F/2|GA G3 G|A2 F2 AG/2F/2|
[1 GG/2F/2 E3 C:|[2 GG/2F/2 E2 CC/2C/2|
|:~AA/2G/2 ~AA BB/2A/2|GE/2F/2 G2 ~AA/2G/2|FD/2E/2F FGG/2G/2
|[1 AG/2F/2 E2 CC/2C/2:|[2 A3 z G4|| +F4B4+ B3 z  +E5c5+ c5


